X: 200913
T: Thompson's
S: "First Collection of Traditional Irish Music" (M.Mulvihill)
Z: B.Black
L: 1/8
M: 6/8
R: jig
K: G
d|BAB GBd|gba ged|ege dBG|ABA A2 D|
GFD GBd|gba ged|ege dBA|BGF G2 :|
d|gba ged|ege dBG|gba ged|eaa age|
gba ged|ege dBG|BAB dBA|BGF G2 :|
